X: 32448
T: Pirate's
R: hornpipe
M: 4/4
K: Gmajor
D2|(GF)GA (GD)B,D|GgdB GABG|(Ac)ed (cB)AG|FdAF DFAF|
(GF)GA (GD)B,D|GgdB GABG|(cA)ec (BA)GF|G2B2G2:|
|:d2|g2g2 fd^cd|a2 ag (fd)^cd|(c'a)fd (cA)BG|FdAF D2 (3DEF|
G2G2 ECB,C|A2 (AG) FD^CD|(gd)cB (Ac)FA|[B,2G2][D2B2][B,2G2]:|

